X: 272
T: Jianjian hau
L: 1/8
M: 2/4
K: F
c> df2 [I:setbarnb 1]| 
g e d c | 
d B A G | 
c4 | 
c> df2 | 
g e d c | 
d B A G | 
c4 | 
c> df2 | 
g e d c | 
A> c d f | 
c d B A | 
G> A c f | 
d c A G | 
A B A G | 
F4 | 
d> c d f | 
c d B A | 
G> A c f | 
d c A G | 
A B A G | 
F2z2 |]

@@@ Tune index: 9146
